X:1
T:Title
L:1/8
M:2/4
K:F
V:1 treble nm="Grand Piano"
V:1
 z2 z[Q:1/4=100] B | B2 A2 | G2 F2 | _EF ED | D3 B | B2 A2 | G2 G2 | ^F2 GG |[M:3/8] A3 | %9
[M:1/8] c |[M:2/4] c2 B2 | A2 A2 | B2 c2 | d3 G | B2 G2 | A2 ^F2 | E2 FF | G4 | z B BA | A2 G2- | %20
 GB B2 | A2 G2- | GB B2 | A2 GG | ^F2 GA | A4 | z c cB | BA A2- | Ac cB | BA A2- | Ac cB | B2 AA | %32
 B2 cc | d4 | z B B2 | AG G^F | E2 ^FG | G4- | G4 |] %39

